src/img/phone-icon.svg

<svg width="20" height="20" viewBox="0 0 20 20" fill="none" xmlns="http://www.w3.org/2000/svg">
<path d="M16.1526 11.7299C15.7598 11.3226 15.2858 11.1048 14.7836 11.1048C14.2854 11.1048 13.8075 11.3185 13.3984 11.7258L12.1185 12.996C12.0132 12.9395 11.9079 12.8871 11.8066 12.8347C11.6608 12.7621 11.5231 12.6936 11.4057 12.621C10.2068 11.8629 9.11725 10.875 8.07227 9.59681C7.56599 8.95966 7.22576 8.4234 6.97869 7.87905C7.31082 7.57662 7.61864 7.26211 7.91836 6.95969C8.03177 6.84678 8.14518 6.72985 8.25858 6.61695C9.10915 5.77017 9.10915 4.67339 8.25858 3.82662L7.15285 2.72581C7.0273 2.60081 6.89769 2.47178 6.77618 2.34274C6.53317 2.09274 6.27799 1.83468 6.01472 1.59274C5.62185 1.20565 5.15201 1 4.65788 1C4.16375 1 3.68581 1.20565 3.28078 1.59274C3.27673 1.59677 3.27673 1.59677 3.27268 1.60081L1.89558 2.98387C1.37714 3.50001 1.08147 4.12903 1.01667 4.85888C0.919459 6.0363 1.26778 7.13308 1.5351 7.85081C2.19125 9.61288 3.17142 11.246 4.63357 12.996C6.40761 15.1049 8.54211 16.7702 10.9804 17.9436C11.912 18.3831 13.1554 18.9033 14.5447 18.9919C14.6297 18.996 14.7188 19 14.7998 19C15.7354 19 16.5212 18.6653 17.1369 18C17.1409 17.9919 17.149 17.9879 17.153 17.9799C17.3637 17.7259 17.6067 17.496 17.8618 17.2501C18.036 17.0847 18.2142 16.9113 18.3883 16.7299C18.7893 16.3145 19 15.8306 19 15.3347C19 14.8347 18.7853 14.3549 18.3762 13.9516L16.1526 11.7299ZM17.6026 15.9758C17.5986 15.9798 17.5986 15.9758 17.6026 15.9758C17.4446 16.1452 17.2826 16.2985 17.1085 16.4678C16.8452 16.7178 16.5779 16.9799 16.3268 17.2742C15.9177 17.7097 15.4357 17.9153 14.8038 17.9153C14.7431 17.9153 14.6783 17.9153 14.6176 17.9114C13.4146 17.8347 12.2968 17.3669 11.4583 16.9677C9.16585 15.8629 7.15285 14.2944 5.48009 12.3064C4.09893 10.6492 3.17547 9.11693 2.56388 7.47179C2.1872 6.46775 2.04949 5.68549 2.11025 4.94758C2.15075 4.47581 2.33301 4.08468 2.66919 3.75001L4.05033 2.375C4.2488 2.18952 4.45941 2.08871 4.66598 2.08871C4.92114 2.08871 5.12771 2.24194 5.25732 2.37097C5.26137 2.375 5.26542 2.37903 5.26947 2.38307C5.51654 2.61291 5.75146 2.85081 5.99853 3.10484C6.12408 3.23387 6.25369 3.36291 6.3833 3.49597L7.48903 4.59678C7.91836 5.0242 7.91836 5.41936 7.48903 5.84678C7.37157 5.96372 7.25817 6.08066 7.1407 6.19356C6.80048 6.54033 6.47646 6.86291 6.12408 7.17743C6.11598 7.1855 6.10789 7.18953 6.10383 7.19759C5.7555 7.54437 5.82032 7.88308 5.89321 8.11292C5.89727 8.12502 5.90132 8.1371 5.90536 8.1492C6.19293 8.84277 6.59797 9.49599 7.21361 10.2742L7.21767 10.2783C8.33554 11.6492 9.51418 12.7177 10.8143 13.5363C10.9804 13.6412 11.1505 13.7259 11.3125 13.8064C11.4583 13.879 11.596 13.9476 11.7134 14.0202C11.7297 14.0282 11.7459 14.0403 11.7621 14.0484C11.8998 14.117 12.0294 14.1492 12.163 14.1492C12.4992 14.1492 12.7099 13.9396 12.7787 13.871L14.1639 12.4919C14.3016 12.3549 14.5203 12.1896 14.7755 12.1896C15.0266 12.1896 15.2332 12.3468 15.3588 12.4839C15.3628 12.4879 15.3628 12.4879 15.3669 12.4919L17.5986 14.7138C18.0157 15.125 18.0157 15.5484 17.6026 15.9758Z" fill="#9A8584"/>
<path d="M17.6026 15.9758C17.5986 15.9758 17.5986 15.9798 17.6026 15.9758ZM17.6026 15.9758C17.4446 16.1452 17.2826 16.2985 17.1085 16.4678C16.8452 16.7178 16.5779 16.9799 16.3268 17.2742C15.9177 17.7097 15.4357 17.9154 14.8038 17.9154C14.7431 17.9154 14.6783 17.9154 14.6176 17.9114C13.4146 17.8347 12.2968 17.3669 11.4583 16.9677C9.16585 15.8629 7.15285 14.2944 5.48009 12.3064C4.09893 10.6492 3.17547 9.11693 2.56388 7.47179C2.1872 6.46775 2.04949 5.68549 2.11025 4.94758C2.15075 4.47581 2.33301 4.08468 2.66919 3.75001L4.05033 2.375C4.2488 2.18952 4.45941 2.08871 4.66598 2.08871C4.92114 2.08871 5.12771 2.24194 5.25732 2.37097C5.26137 2.375 5.26542 2.37903 5.26947 2.38307C5.51654 2.61291 5.75146 2.85081 5.99853 3.10484C6.12408 3.23387 6.25369 3.36291 6.3833 3.49597L7.48903 4.59678C7.91836 5.0242 7.91836 5.41936 7.48903 5.84678C7.37157 5.96372 7.25817 6.08066 7.1407 6.19356C6.80048 6.54033 6.47646 6.86291 6.12408 7.17743C6.11598 7.1855 6.10789 7.18953 6.10383 7.19759C5.7555 7.54437 5.82032 7.88308 5.89321 8.11292C5.89727 8.12502 5.90132 8.1371 5.90536 8.1492C6.19293 8.84277 6.59797 9.49599 7.21361 10.2742L7.21767 10.2783C8.33554 11.6492 9.51418 12.7177 10.8143 13.5363C10.9804 13.6412 11.1505 13.7259 11.3125 13.8064C11.4583 13.879 11.596 13.9476 11.7134 14.0202C11.7297 14.0282 11.7459 14.0403 11.7621 14.0484C11.8998 14.117 12.0294 14.1492 12.163 14.1492C12.4992 14.1492 12.7099 13.9396 12.7787 13.871L14.1639 12.4919C14.3016 12.3549 14.5203 12.1896 14.7755 12.1896C15.0266 12.1896 15.2332 12.3468 15.3588 12.4839C15.3628 12.4879 15.3628 12.4879 15.3669 12.4919L17.5986 14.7138C18.0157 15.125 18.0157 15.5484 17.6026 15.9758ZM16.1526 11.7299C15.7598 11.3226 15.2858 11.1048 14.7836 11.1048C14.2854 11.1048 13.8075 11.3185 13.3984 11.7258L12.1185 12.996C12.0132 12.9395 11.9079 12.8871 11.8066 12.8347C11.6608 12.7621 11.5231 12.6936 11.4057 12.621C10.2068 11.8629 9.11725 10.875 8.07227 9.59681C7.56599 8.95966 7.22576 8.4234 6.97869 7.87905C7.31082 7.57662 7.61864 7.26211 7.91836 6.95969C8.03177 6.84678 8.14518 6.72985 8.25858 6.61695C9.10915 5.77017 9.10915 4.67339 8.25858 3.82662L7.15285 2.72581C7.0273 2.60081 6.89769 2.47178 6.77618 2.34274C6.53317 2.09274 6.27799 1.83468 6.01472 1.59274C5.62185 1.20565 5.15201 1 4.65788 1C4.16375 1 3.68581 1.20565 3.28078 1.59274C3.27673 1.59677 3.27673 1.59677 3.27268 1.60081L1.89558 2.98387C1.37714 3.50001 1.08147 4.12903 1.01667 4.85888C0.919459 6.0363 1.26778 7.13308 1.5351 7.85081C2.19125 9.61288 3.17142 11.246 4.63357 12.996C6.40761 15.1049 8.54211 16.7702 10.9804 17.9436C11.912 18.3831 13.1554 18.9033 14.5447 18.9919C14.6297 18.996 14.7188 19 14.7998 19C15.7354 19 16.5212 18.6653 17.1369 18C17.1409 17.9919 17.149 17.9879 17.153 17.9799C17.3637 17.7259 17.6067 17.496 17.8618 17.2501C18.036 17.0847 18.2142 16.9113 18.3883 16.7299C18.7893 16.3145 19 15.8306 19 15.3347C19 14.8347 18.7853 14.3549 18.3762 13.9516L16.1526 11.7299Z" stroke="#9A8584" stroke-width="0.4"/>
</svg>

<svg width="20" height="20" fill="none" xmlns="http://www.w3.org/2000/svg"><path d="M16.153 11.73c-.393-.407-.867-.625-1.37-.625-.498 0-.976.213-1.385.62l-1.28 1.271c-.105-.056-.21-.109-.311-.161-.146-.073-.284-.141-.401-.214-1.2-.758-2.289-1.746-3.334-3.024-.506-.637-.846-1.174-1.093-1.718.332-.302.64-.617.94-.92.113-.112.226-.23.34-.342.85-.847.85-1.944 0-2.79L7.153 2.726a17.02 17.02 0 01-.377-.383 19.08 19.08 0 00-.761-.75C5.622 1.206 5.152 1 4.658 1s-.972.206-1.377.593l-.008.008-1.377 1.383a2.944 2.944 0 00-.88 1.875c-.097 1.177.252 2.274.52 2.992.655 1.762 1.635 3.395 3.098 5.145a19.048 19.048 0 006.346 4.948c.932.44 2.175.96 3.565 1.048.085.004.174.008.255.008.935 0 1.721-.335 2.337-1 .004-.008.012-.012.016-.02.21-.254.454-.484.709-.73.174-.165.352-.339.526-.52.401-.416.612-.9.612-1.395 0-.5-.215-.98-.624-1.383l-2.223-2.222zm1.45 4.246c-.004.004-.004 0 0 0-.158.17-.32.322-.495.492-.263.25-.53.512-.781.806-.41.436-.891.641-1.523.641-.06 0-.126 0-.186-.004-1.203-.076-2.321-.544-3.16-.943a17.979 17.979 0 01-5.978-4.662C4.1 10.65 3.175 9.116 2.564 7.472c-.377-1.004-.515-1.787-.454-2.524.04-.472.223-.863.56-1.198l1.38-1.375c.199-.185.41-.286.616-.286.255 0 .462.153.591.282l.012.012c.248.23.482.468.73.722.125.129.255.258.384.391l1.106 1.1c.43.428.43.823 0 1.25-.117.118-.23.235-.348.348-.34.346-.665.669-1.017.983-.008.009-.016.013-.02.02-.349.347-.284.686-.21.916l.011.036c.288.694.693 1.347 1.309 2.125l.004.004c1.118 1.371 2.296 2.44 3.596 3.258.166.105.336.19.498.27.146.073.284.142.401.214.017.008.033.02.05.028a.88.88 0 00.4.101c.336 0 .547-.21.616-.278l1.385-1.38c.138-.136.356-.301.611-.301.252 0 .458.157.584.294l.008.008 2.232 2.222c.417.411.417.834.004 1.262z" fill="#9A8584"/><path d="M17.603 15.976c-.004 0-.004.004 0 0zm0 0c-.158.17-.32.322-.495.492-.263.25-.53.512-.781.806-.41.436-.891.641-1.523.641-.06 0-.126 0-.186-.004-1.203-.076-2.321-.544-3.16-.943a17.979 17.979 0 01-5.978-4.662C4.1 10.65 3.175 9.116 2.564 7.472c-.377-1.004-.515-1.787-.454-2.524.04-.472.223-.863.56-1.198l1.38-1.375c.199-.185.41-.286.616-.286.255 0 .462.153.591.282l.012.012c.248.23.482.468.73.722.125.129.255.258.384.391l1.106 1.1c.43.428.43.823 0 1.25-.117.118-.23.235-.348.348-.34.346-.665.669-1.017.983-.008.009-.016.013-.02.02-.349.347-.284.686-.21.916l.011.036c.288.694.693 1.347 1.309 2.125l.004.004c1.118 1.371 2.296 2.44 3.596 3.258.166.105.336.19.498.27.146.073.284.142.401.214.017.008.033.02.05.028a.88.88 0 00.4.101c.336 0 .547-.21.616-.278l1.385-1.38c.138-.136.356-.301.611-.301.252 0 .458.157.584.294l.008.008 2.232 2.222c.417.411.417.834.004 1.262zm-1.45-4.246c-.393-.407-.867-.625-1.37-.625-.498 0-.976.213-1.385.62l-1.28 1.271c-.105-.056-.21-.109-.311-.161-.146-.073-.284-.141-.401-.214-1.2-.758-2.289-1.746-3.334-3.024-.506-.637-.846-1.174-1.093-1.718.332-.302.64-.617.94-.92.113-.112.226-.23.34-.342.85-.847.85-1.944 0-2.79L7.153 2.726a17.02 17.02 0 01-.377-.383 19.08 19.08 0 00-.761-.75C5.622 1.206 5.152 1 4.658 1s-.972.206-1.377.593l-.008.008-1.377 1.383a2.944 2.944 0 00-.88 1.875c-.097 1.177.252 2.274.52 2.992.655 1.762 1.635 3.395 3.098 5.145a19.048 19.048 0 006.346 4.948c.932.44 2.175.96 3.565 1.048.085.004.174.008.255.008.935 0 1.721-.335 2.337-1 .004-.008.012-.012.016-.02.21-.254.454-.484.709-.73.174-.165.352-.339.526-.52.401-.416.612-.9.612-1.395 0-.5-.215-.98-.624-1.383l-2.223-2.222z" stroke="#9A8584" stroke-width=".4"/></svg>
